packages/ui/public/icons/share.svg

<svg width="17" height="14" viewBox="0 0 17 14" fill="none" xmlns="http://www.w3.org/2000/svg">
<path d="M16.7652 7.28737C16.9664 7.09348 16.9717 6.75831 16.7768 6.55725L10.5581 0.141379C10.261 -0.165142 9.76467 0.0595988 9.76467 0.50066V3.17892C7.44014 3.14056 5.69376 3.78955 4.39593 4.78411C3.07782 5.79422 2.23798 7.1487 1.72046 8.46154C1.20342 9.77317 1.00416 11.0527 0.972431 11.93C0.956784 12.3627 0.980954 12.7198 1.03903 12.9379C1.05387 12.9937 1.07393 13.0522 1.10276 13.1039C1.12813 13.1495 1.18182 13.2288 1.27936 13.2619C1.39673 13.3018 1.49634 13.2506 1.55408 13.1977C1.60619 13.15 1.64121 13.0884 1.66545 13.0366L1.66852 13.0301L1.671 13.0239L1.67124 13.0233L1.67183 13.0219L1.67661 13.0108C1.68122 13.0002 1.68874 12.9835 1.69937 12.9613C1.72064 12.9168 1.75436 12.85 1.80232 12.7659C1.89825 12.5977 2.05097 12.3602 2.27468 12.0916C2.72151 11.555 3.45296 10.8924 4.58564 10.4087C5.23038 10.1334 6.30506 10.0081 7.35874 9.98787C8.36425 9.96851 9.30204 10.0453 9.76467 10.1542V12.9109C9.76467 13.3439 10.2454 13.572 10.5465 13.2818L16.7652 7.28737Z" fill="#FBFBFB"/>
</svg>

<svg width="17" height="14" fill="none" xmlns="http://www.w3.org/2000/svg"><path d="M16.765 7.287a.523.523 0 0 0 .012-.73L10.558.141c-.297-.306-.793-.081-.793.36v2.678c-2.325-.038-4.071.61-5.37 1.605C3.079 5.794 2.239 7.15 1.72 8.462c-.517 1.311-.716 2.59-.748 3.468-.015.433.009.79.067 1.008a.728.728 0 0 0 .064.166.33.33 0 0 0 .176.158.273.273 0 0 0 .275-.064.51.51 0 0 0 .111-.161l.004-.007.002-.006v-.002l.006-.011.022-.05c.022-.044.055-.111.103-.195.096-.168.249-.406.473-.674.447-.537 1.178-1.2 2.31-1.683.645-.276 1.72-.4 2.774-.421 1.005-.02 1.943.057 2.406.166v2.757c0 .433.48.661.781.37l6.22-5.994Z" fill="#FBFBFB"/></svg>
